X:1
T:Quasi adagio
T:37-Swine-Herd's Song 
T:Béla Bartók Revised and Arranged by the Composer, January 1945 
T:Book 1 (after Hungarian Folksongs)
T:For Children Nr 37 , Sz 42
C:Bela bartok
%%score { ( 1 3 ) | ( 2 4 ) }
L:1/8
Q:1/4=132
M:2/4
K:Bb
V:1 treble nm="Piano"
V:3 treble 
V:2 bass 
V:4 bass 
V:1
"^Allegro,"!f! (!3!g!2!f)(!3!e!2!d) | (!3!cd) !tenuto!!1!!2![GB]2 | !1!!2!!4![GAc][GAc][GAc][GAc] | %3
 !^!!tenuto!!1!!2!!5![FAd]2 !tenuto![FAd]2 | (!2!!4![_eg]!1!!3![df])(!2!!4![ce]!1!!3![Bd]) | %5
 (!1!!3![Ac]!2!!4![Bd]) !tenuto!!1!!3![GB]2 | .!2!!4![EG](!2!!4![EG]!1!!3![DF]).!2!!4![DF] | %7
 !tenuto!!1!!2!!5![B,DG]2 !tenuto![B,DG]2 |!mf! (!1!FA)(FA) |"_poco cresc." !4!B!3!B !1!!3![EGB]2 | %10
 !5!c!5!c!5!c!4!c | !tenuto!!5!d2 !tenuto!.!1!!2!!4![G=Bd]2 | %12
!mf! (!2!!4![eg][df])(!2!!4![ce][Bd]) |"_dim." !2!!4![_Ac]!1!!5![^Fd] !tenuto!.!1!!3![GB]2 | %14
 .!2!!4![EG]!2!!4![EG]!1!!3![DF].!2!!4![DF] |!p! !tenuto!!1!!2!!5![B,DG]2 !tenuto![B,DG]2 | z4 | %17
 z4 |!mf! z2 (!2!!4![EG]F) |"_cresc." z2 (!3!G_A) | z2 (!4!Bc) | z2 (!5!ED) | z2 (!3!d_e) | %23
 z2 (!3!=ef) | z2!f! (!1!!2!!4![A_eg]a) | z2 !3!!5![=Bd]2 | z4 | z2!p! (!2!AG) | %28
[Q:1/4=152]"^Più Vivo,"!f! ((!2!!4![eg][df]))(!2!!4![ce][Bd]) | %29
 (!1!!3![Ac][Bd]) !tenuto!!1!!3![GB]2 | .!2!!4![EG]([EG][DF]).!2!!4![DF] | %31
 !tenuto!!1!!2!!5![B,DG]2 !tenuto![B,DG]2 |!ff! (!2!!4![e'g'][d'f'])(!2!!4![c'e'][bd']) | %33
 (!1!!3![ac'][bd']) !tenuto!!1!!3![gb]2 | .!2!!4![eg]([eg][df]).!2!!

!!4![df] | %35
 !tenuto![Bdg]2 !tenuto![Bdg]2 | z2[K:bass] !tenuto!.!2!!4![G,,B,,]2 | z2 !tenuto!.!2!!4![G,B,]2 | %38
 z2[K:treble] !tenuto!.[Bdg]2 | z2!fff! !fermata![bd'g']2 |] %40
V:2
 (!2!G!3!F)(!2!E!3!D) | !2!CD !tenuto!!4!!2![G,B,]2 | (!2!G,!3!F,)(!2!F,!3!=E,) | %3
 !4!D,2 !tenuto!!4!D,2 | z2 (!4!C,,D,,) | (E,,F,,)(!2!G,,!1!A,,) | .!5!B,,(!3!E,!1!B,).!2!A, | %7
 G,2 !tenuto!G,2 | z2 !tenuto!.!4!!2!!1![F,A,C]2 | z2 !tenuto!.!4!!2!!1![E,G,B,]2 | %10
 z2 !tenuto!.!5!!3!!1![C,=E,G,]2 | z2 !tenuto!.!5!!3!!1![G,,=B,,D,]2 | (!1!_E!3!B,)(!1!C!3!G,) | %13
 (!2!_A,!5!!1![D,=A,])(!4!D,!5!C,- | C,)(!2!B,!1!A,).!5!D, | (!1!G,!2!F,!3!D,!5!B,,) | %16
 z"^cresc." (!1!G,F,!4!D, | !1!F,!2!D,!3!B,,!5!G,,) | (!3!F,,!1!A,,)(F,,A,,) | %19
 !2!B,,!1!B,, !tenuto!!2!B,,2 | !1!C,!2!C,!1!C,!2!C, | !tenuto!!1!D,2 !tenuto!!3!D,2 | %22
 (!1!G,!2!F,)(!2!E,!3!D,) | (!3!C,!1!D,) !2!B,,2 | !4!G,,(!2!G,,!3!F,,)!3!F,, | !2!G,,2 !2!G,,2 | %26
 z2!f! !2!!1![=B,D]2 | z4 | z2 (!4!C,,D,,) | (E,,F,,)(!2!G,,!1!A,,) | .!5!B,,(!3!E,!1!B,).!2!A, | %31
 (!1!G,!2!F,!1!D,!2!B,,) | !5!F,,2 (!4!C,D,) | (E,F,)(!2!G,!1!A,) |[K:treble] .!5!B,(!3!EB).A | %35
!ped! (!1!GFGD | GFGD | GFGD | GFGD) | z2 !fermata![G,D]2!ped-up! |] %40
V:3
 x4 | x4 | x4 | x4 | x4 | x4 | x4 | x4 | x4 | x4 | z2 !4![=EG]2 | x4 | x4 | x4 | x4 | x4 | x4 | %17
 x4 | x2 !1![CE]2 | x2 !1!!2![DF]2 | x2 !1!!2![=EG]2 | x2 !2!!3![^FA]2 | x2 !1!!2![Ac]2 | %23
 x2 !1!!2![_Bd]2 | x4 | x2 (!2!AG) | x4 | x4 | x4 | x4 | x4 | x4 | x4 | x4 | x4 | x4 | %36
 x2[K:bass] x2 | x4 | x2[K:treble] x2 | x4 |] %40
V:4
 x4 | x4 | x4 | x4 | x4 | x4 | x4 | x4 | x4 | x4 | x4 | x4 | x4 | x4 | x4 | x4 | x4 | x4 | x4 | %19
 x4 | x4 | x4 | x4 | x4 | x4 | x4 | x2 !3!A,G, | x4 | x4 | x4 | x4 | x4 | x4 | x4 |[K:treble] x4 | %35
 x4 | x4 | x4 | x4 | x4 |] %40

